X:3521
T:Craig's Pipes
T:Kerry Huntsman, The
R:reel
E:7
I:speed 350
S:P. Keenan
M:C|
K:G
B2 BA BAGA|B2GB AGED|~B3A BAGB|~A2 BG AGED|\
B2 BA BAGA|B2GB AGED|(3.B.c.d ed BcdB|AcBG AGEG||*
DG ~G2 DGBG|DGBG AGEG|DGGF~G3 B|dBAc BG~G2::\
d2 Bd efge|dGBG AGEG|d2Bd efge|agbg ageg:|**


